icons/tab-external-16.svg

<svg width="16" height="16" viewBox="0 0 16 16" fill="none" xmlns="http://www.w3.org/2000/svg">
<path d="M3.25 4C3.11193 4 3 4.11193 3 4.25V13.25C3 13.6642 2.66421 14 2.25 14H0.75C0.335786 14 0 13.6642 0 13.25C0 12.8358 0.335786 12.5 0.75 12.5H1.5V4.25C1.5 3.2835 2.2835 2.5 3.25 2.5H12.75C13.7165 2.5 14.5 3.2835 14.5 4.25V12.5H15.25C15.6642 12.5 16 12.8358 16 13.25C16 13.6642 15.6642 14 15.25 14H13.75C13.3358 14 13 13.6642 13 13.25V4.25C13 4.11193 12.8881 4 12.75 4H3.25Z" fill="black"/>
<path d="M7.96966 7.96968L5.21967 10.7197C4.92678 11.0126 4.92678 11.4874 5.21967 11.7803C5.51256 12.0732 5.98744 12.0732 6.28033 11.7803L9.03032 9.03034L10.5732 10.5732C10.7307 10.7307 11 10.6192 11 10.3964V6.25C11 6.11193 10.888 6 10.75 6H6.60353C6.3808 6 6.26926 6.26929 6.42675 6.42678L7.96966 7.96968Z" fill="black"/>
</svg>

<svg xmlns="http://www.w3.org/2000/svg" width="16" height="16" viewBox="0 0 16 16"><path d="M3.25 4a.25.25 0 00-.25.25v9a.75.75 0 01-.75.75H.75a.75.75 0 010-1.5h.75V4.25c0-.966.784-1.75 1.75-1.75h9.5c.966 0 1.75.784 1.75 1.75v8.25h.75a.75.75 0 010 1.5h-1.5a.75.75 0 01-.75-.75v-9a.25.25 0 00-.25-.25h-9.5z"/><path d="M7.97 7.97l-2.75 2.75a.75.75 0 101.06 1.06l2.75-2.75 1.543 1.543a.25.25 0 00.427-.177V6.25a.25.25 0 00-.25-.25H6.604a.25.25 0 00-.177.427L7.97 7.97z"/></svg>
